X:159
T:Sonata K.516 in D minor
C:Scarlatti, D.
M:3/4
L:1/16
Q:1/4=80
K:Dmin
|:A4d4 f4e4|d4c4 B4A4|G4F4 G4A4|B8 A4z4|
A4d4 f4g4|a4g4 f4e4|d4e4 f4g4|d8 z8:|

